public/img/Hero/Infinix_Holding.svg

<svg width="443" height="79" viewBox="0 0 443 79" fill="none" xmlns="http://www.w3.org/2000/svg">
<path d="M64.5275 15.4458C57.6287 15.4458 51.4066 18.4244 47.0524 23.1739L54.8458 35.0475C56.5237 31.337 60.2316 28.7524 64.5275 28.7524C70.3972 28.7524 75.1722 33.5735 75.1722 39.5001C75.1722 45.4266 70.3972 50.2477 64.5275 50.2477C60.5585 50.2477 57.2764 47.9319 55.264 44.7843C45.0122 28.7524 46.5582 31.0069 43.2406 25.7763C42.4346 24.5045 41.4665 23.1867 41.2232 22.9282C36.8816 18.3221 30.7559 15.4458 23.9762 15.4458C10.8401 15.4458 0.152344 26.237 0.152344 39.5001C0.152344 52.7632 10.8401 63.5543 23.9762 63.5543C30.9105 63.5543 37.1604 60.5476 41.5172 55.7572L33.7769 43.6942C32.1549 47.5429 28.3735 50.2477 23.9762 50.2477C18.1064 50.2477 13.3315 45.4266 13.3315 39.5001C13.3315 33.5735 18.1064 28.7524 23.9762 28.7524C27.8919 28.7524 31.2121 30.9659 33.1687 34.0904C41.2105 46.9211 41.9581 47.9165 45.438 53.3722C46.3351 54.7771 47.7849 56.6067 48.2588 57.0546C52.5192 61.0824 58.242 63.5543 64.5275 63.5543C77.6635 63.5543 88.3513 52.7632 88.3513 39.5001C88.3513 26.237 77.6635 15.4458 64.5275 15.4458Z" fill="white"/>
<path d="M110.888 65V18.0655H119.455V65H110.888ZM127.79 65V30.7284H135.539V37.4693L134.909 36.2723C135.707 34.2144 137.009 32.6604 138.815 31.6104C140.663 30.5184 142.805 29.9724 145.241 29.9724C147.761 29.9724 149.987 30.5184 151.919 31.6104C153.893 32.7024 155.426 34.2354 156.518 36.2093C157.61 38.1413 158.156 40.3883 158.156 42.9503V65H149.903V44.9032C149.903 43.3913 149.609 42.0893 149.021 40.9973C148.433 39.9053 147.614 39.0653 146.564 38.4773C145.556 37.8473 144.359 37.5323 142.973 37.5323C141.629 37.5323 140.432 37.8473 139.382 38.4773C138.332 39.0653 137.513 39.9053 136.925 40.9973C136.337 42.0893 136.043 43.3913 136.043 44.9032V65H127.79ZM169.103 65V38.0993H163.055V30.7284H169.103V29.5944C169.103 26.9904 169.628 24.7855 170.678 22.9795C171.77 21.1315 173.282 19.7245 175.214 18.7585C177.146 17.7926 179.435 17.3096 182.081 17.3096C182.585 17.3096 183.131 17.3516 183.719 17.4356C184.349 17.4776 184.874 17.5406 185.294 17.6246V24.7435C184.874 24.6595 184.475 24.6175 184.097 24.6175C183.761 24.5755 183.446 24.5545 183.152 24.5545C181.304 24.5545 179.876 24.9745 178.868 25.8145C177.86 26.6124 177.356 27.8724 177.356 29.5944V30.7284H192.35V38.0993H177.356V65H169.103ZM189.263 65V30.7284H197.579V65H189.263ZM204.447 65V30.7284H212.196V37.4693L211.566 36.2723C212.364 34.2144 213.666 32.6604 215.472 31.6104C217.32 30.5184 219.462 29.9724 221.898 29.9724C224.418 29.9724 226.644 30.5184 228.576 31.6104C230.55 32.7024 232.083 34.2354 233.175 36.2093C234.267 38.1413 234.813 40.3883 234.813 42.9503V65H226.56V44.9032C226.56 43.3913 226.266 42.0893 225.678 40.9973C225.09 39.9053 224.271 39.0653 223.221 38.4773C222.213 37.8473 221.016 37.5323 219.63 37.5323C218.286 37.5323 217.089 37.8473 216.039 38.4773C214.989 39.0653 214.17 39.9053 213.582 40.9973C212.994 42.0893 212.7 43.3913 212.7 44.9032V65H204.447ZM241.792 65V30.7284H250.045V65H241.792ZM241.792 26.8854V18.0655H250.045V26.8854H241.792ZM254.577 65L266.547 47.8012L254.514 30.7284H264.216L273.603 44.5882H269.256L278.643 30.7284H288.282L276.312 47.8012L288.219 65H278.58L269.319 51.2032H273.54L264.279 65H254.577Z" fill="white"/>
<path d="M307.352 15.4453L307.352 63.5538" stroke="white" stroke-width="0.916353"/>
<path d="M327.206 35V17.9329H329.451V25.5387H337.996V17.9329H340.264V35H337.996V27.6004H329.451V35H327.206ZM352.208 35.2749C351.001 35.2749 349.871 35.0611 348.817 34.6335C347.763 34.1906 346.839 33.572 346.045 32.7778C345.266 31.9837 344.655 31.052 344.213 29.983C343.77 28.8986 343.548 27.7226 343.548 26.455C343.548 25.1721 343.77 23.9961 344.213 22.927C344.655 21.858 345.266 20.9263 346.045 20.1322C346.839 19.338 347.756 18.7271 348.794 18.2995C349.848 17.8718 350.986 17.658 352.208 17.658C353.43 17.658 354.56 17.8795 355.598 18.3224C356.652 18.75 357.568 19.3609 358.347 20.1551C359.141 20.934 359.76 21.858 360.203 22.927C360.661 23.9961 360.89 25.1721 360.89 26.455C360.89 27.7226 360.661 28.8986 360.203 29.983C359.76 31.052 359.141 31.9837 358.347 32.7778C357.568 33.572 356.652 34.1906 355.598 34.6335C354.56 35.0611 353.43 35.2749 352.208 35.2749ZM352.208 33.1902C353.155 33.1902 354.018 33.0222 354.796 32.6862C355.575 32.3349 356.247 31.8539 356.812 31.243C357.393 30.6168 357.836 29.899 358.141 29.0895C358.462 28.2648 358.622 27.3866 358.622 26.455C358.622 25.5234 358.462 24.6528 358.141 23.8434C357.836 23.034 357.393 22.3238 356.812 21.7129C356.247 21.0867 355.575 20.6056 354.796 20.2696C354.018 19.9184 353.155 19.7427 352.208 19.7427C351.276 19.7427 350.421 19.9184 349.642 20.2696C348.863 20.6056 348.183 21.0867 347.603 21.7129C347.038 22.3238 346.595 23.034 346.274 23.8434C345.954 24.6528 345.793 25.5234 345.793 26.455C345.793 27.3866 345.954 28.2648 346.274 29.0895C346.595 29.899 347.038 30.6168 347.603 31.243C348.183 31.8539 348.863 32.3349 349.642 32.6862C350.421 33.0222 351.276 33.1902 352.208 33.1902ZM364.164 35V17.9329H366.41V32.9382H373.901V35H364.164ZM376.424 35V17.9329H382.014C383.74 17.9329 385.244 18.2842 386.527 18.9867C387.81 19.6893 388.803 20.682 389.505 21.9649C390.208 23.2325 390.559 24.7292 390.559 26.455C390.559 28.1655 390.208 29.6622 389.505 30.9451C388.803 32.228 387.81 33.2284 386.527 33.9462C385.244 34.6487 383.74 35 382.014 35H376.424ZM378.669 32.9382H382.037C383.305 32.9382 384.397 32.6709 385.313 32.1364C386.245 31.6019 386.962 30.8535 387.466 29.8913C387.97 28.9139 388.222 27.7684 388.222 26.455C388.222 25.1263 387.963 23.9809 387.443 23.0187C386.939 22.0565 386.222 21.3158 385.29 20.7965C384.374 20.262 383.289 19.9947 382.037 19.9947H378.669V32.9382ZM393.405 35V17.9329H395.65V35H393.405ZM399.445 35V17.9329H401.324L411.128 31.724L410.281 31.8157V17.9329H412.549V35H410.67L400.911 21.1173L401.69 21.0256V35H399.445ZM424.239 35.2749C423.032 35.2749 421.917 35.0611 420.894 34.6335C419.871 34.1906 418.985 33.572 418.237 32.7778C417.488 31.9837 416.9 31.052 416.473 29.983C416.06 28.9139 415.854 27.7455 415.854 26.4779C415.854 25.195 416.06 24.019 416.473 22.95C416.885 21.8809 417.465 20.9493 418.214 20.1551C418.962 19.3609 419.848 18.75 420.871 18.3224C421.894 17.8795 423.009 17.658 424.216 17.658C425.392 17.658 426.446 17.8642 427.377 18.2766C428.324 18.6889 429.118 19.2235 429.76 19.8802C430.417 20.5369 430.882 21.2394 431.157 21.9878L429.141 22.9729C428.744 21.9802 428.126 21.1936 427.286 20.6133C426.446 20.0329 425.422 19.7427 424.216 19.7427C423.025 19.7427 421.963 20.0253 421.032 20.5903C420.115 21.1554 419.397 21.942 418.878 22.95C418.359 23.9579 418.099 25.1339 418.099 26.4779C418.099 27.8066 418.359 28.975 418.878 29.983C419.413 30.991 420.138 31.7775 421.054 32.3426C421.986 32.9077 423.048 33.1902 424.239 33.1902C425.277 33.1902 426.217 32.9688 427.057 32.5258C427.897 32.0829 428.561 31.472 429.05 30.6931C429.538 29.9142 429.783 29.0132 429.783 27.9899V26.9361L430.814 27.8983H424.216V25.951H432.051V27.463C432.051 28.6543 431.845 29.731 431.432 30.6931C431.02 31.6553 430.455 32.48 429.737 33.1673C429.019 33.8393 428.187 34.3586 427.24 34.7251C426.293 35.0916 425.293 35.2749 424.239 35.2749ZM335.087 64.2749C333.88 64.2749 332.765 64.0611 331.742 63.6335C330.719 63.1906 329.833 62.572 329.085 61.7778C328.336 60.9837 327.748 60.052 327.321 58.983C326.908 57.9139 326.702 56.7455 326.702 55.4779C326.702 54.195 326.908 53.019 327.321 51.95C327.733 50.8809 328.313 49.9493 329.062 49.1551C329.81 48.3609 330.696 47.75 331.719 47.3224C332.742 46.8795 333.857 46.658 335.064 46.658C336.24 46.658 337.294 46.8642 338.225 47.2766C339.172 47.6889 339.966 48.2235 340.608 48.8802C341.265 49.5369 341.73 50.2394 342.005 50.9878L339.989 51.9729C339.592 50.9802 338.974 50.1936 338.134 49.6133C337.294 49.0329 336.27 48.7427 335.064 48.7427C333.873 48.7427 332.811 49.0253 331.88 49.5903C330.963 50.1554 330.245 50.942 329.726 51.95C329.207 52.9579 328.947 54.1339 328.947 55.4779C328.947 56.8066 329.207 57.975 329.726 58.983C330.261 59.991 330.986 60.7775 331.902 61.3426C332.834 61.9077 333.895 62.1902 335.087 62.1902C336.125 62.1902 337.065 61.9688 337.905 61.5258C338.745 61.0829 339.409 60.472 339.898 59.6931C340.386 58.9142 340.631 58.0132 340.631 56.9899V55.9361L341.662 56.8983H335.064V54.951H342.899V56.463C342.899 57.6543 342.692 58.731 342.28 59.6931C341.868 60.6553 341.303 61.48 340.585 62.1673C339.867 62.8393 339.035 63.3586 338.088 63.7251C337.141 64.0916 336.141 64.2749 335.087 64.2749ZM345.931 64V46.9329H351.956C353.087 46.9329 354.079 47.1467 354.935 47.5744C355.79 48.002 356.454 48.6129 356.928 49.4071C357.416 50.2013 357.661 51.1329 357.661 52.202C357.661 53.4085 357.355 54.4317 356.744 55.2717C356.133 56.1117 355.309 56.715 354.27 57.0815L358.233 64H355.622L351.452 56.6004L352.941 57.471H348.176V64H345.931ZM348.176 55.4092H352.025C352.697 55.4092 353.285 55.2794 353.789 55.0197C354.293 54.7601 354.683 54.3859 354.957 53.8972C355.248 53.4085 355.393 52.8434 355.393 52.202C355.393 51.5452 355.248 50.9802 354.957 50.5067C354.683 50.018 354.293 49.6438 353.789 49.3842C353.285 49.1245 352.697 48.9947 352.025 48.9947H348.176V55.4092ZM368.942 64.2749C367.735 64.2749 366.605 64.0611 365.551 63.6335C364.498 63.1906 363.574 62.572 362.779 61.7778C362.001 60.9837 361.39 60.052 360.947 58.983C360.504 57.8986 360.282 56.7226 360.282 55.455C360.282 54.1721 360.504 52.9961 360.947 51.927C361.39 50.858 362.001 49.9263 362.779 49.1322C363.574 48.338 364.49 47.7271 365.528 47.2995C366.582 46.8718 367.72 46.658 368.942 46.658C370.164 46.658 371.294 46.8795 372.332 47.3224C373.386 47.75 374.303 48.3609 375.081 49.1551C375.876 49.934 376.494 50.858 376.937 51.927C377.395 52.9961 377.624 54.1721 377.624 55.455C377.624 56.7226 377.395 57.8986 376.937 58.983C376.494 60.052 375.876 60.9837 375.081 61.7778C374.303 62.572 373.386 63.1906 372.332 63.6335C371.294 64.0611 370.164 64.2749 368.942 64.2749ZM368.942 62.1902C369.889 62.1902 370.752 62.0222 371.531 61.6862C372.309 61.3349 372.981 60.8539 373.547 60.243C374.127 59.6168 374.57 58.899 374.875 58.0895C375.196 57.2648 375.356 56.3866 375.356 55.455C375.356 54.5234 375.196 53.6528 374.875 52.8434C374.57 52.034 374.127 51.3238 373.547 50.7129C372.981 50.0867 372.309 49.6056 371.531 49.2696C370.752 48.9184 369.889 48.7427 368.942 48.7427C368.01 48.7427 367.155 48.9184 366.376 49.2696C365.597 49.6056 364.918 50.0867 364.337 50.7129C363.772 51.3238 363.329 52.034 363.008 52.8434C362.688 53.6528 362.527 54.5234 362.527 55.455C362.527 56.3866 362.688 57.2648 363.008 58.0895C363.329 58.899 363.772 59.6168 364.337 60.243C364.918 60.8539 365.597 61.3349 366.376 61.6862C367.155 62.0222 368.01 62.1902 368.942 62.1902ZM387.084 64.2749C385.847 64.2749 384.747 64.0153 383.785 63.496C382.838 62.9767 382.098 62.2666 381.563 61.3655C381.044 60.4491 380.784 59.4106 380.784 58.2499V46.9329H383.052V58.2041C383.052 58.983 383.22 59.6779 383.556 60.2888C383.907 60.8844 384.381 61.3502 384.976 61.6862C385.587 62.0222 386.29 62.1902 387.084 62.1902C387.878 62.1902 388.573 62.0222 389.169 61.6862C389.78 61.3502 390.253 60.8844 390.589 60.2888C390.94 59.6779 391.116 58.983 391.116 58.2041V46.9329H393.384V58.2499C393.384 59.4106 393.117 60.4491 392.582 61.3655C392.063 62.2666 391.33 62.9767 390.383 63.496C389.436 64.0153 388.336 64.2749 387.084 64.2749ZM397.074 64V46.9329H403.099C404.229 46.9329 405.221 47.1467 406.077 47.5744C406.932 48.002 407.596 48.6129 408.07 49.4071C408.559 50.2013 408.803 51.1329 408.803 52.202C408.803 53.271 408.559 54.2027 408.07 54.9968C407.596 55.7757 406.932 56.3866 406.077 56.8295C405.237 57.2572 404.244 57.471 403.099 57.471H399.319V64H397.074ZM399.319 55.4092H403.167C403.855 55.4092 404.45 55.2794 404.954 55.0197C405.458 54.7601 405.848 54.3859 406.123 53.8972C406.397 53.4085 406.535 52.8434 406.535 52.202C406.535 51.5452 406.397 50.9802 406.123 50.5067C405.848 50.018 405.458 49.6438 404.954 49.3842C404.45 49.1245 403.855 48.9947 403.167 48.9947H399.319V55.4092Z" fill="white"/>
</svg>

<svg width="443" height="79" fill="none" xmlns="http://www.w3.org/2000/svg"><path d="M64.528 15.446c-6.9 0-13.121 2.978-17.476 7.728l7.794 11.873c1.678-3.71 5.386-6.295 9.682-6.295 5.87 0 10.644 4.822 10.644 10.748 0 5.927-4.775 10.748-10.644 10.748-3.97 0-7.252-2.316-9.264-5.464-10.252-16.032-8.706-13.777-12.023-19.008-.806-1.271-1.774-2.59-2.018-2.848-4.341-4.606-10.467-7.482-17.247-7.482C10.84 15.446.152 26.237.152 39.5c0 13.263 10.688 24.054 23.824 24.054 6.934 0 13.184-3.006 17.541-7.797l-7.74-12.063c-1.622 3.849-5.404 6.554-9.8 6.554-5.87 0-10.646-4.821-10.646-10.748 0-5.926 4.775-10.748 10.645-10.748 3.916 0 7.236 2.214 9.193 5.338 8.042 12.831 8.79 13.826 12.269 19.282.897 1.405 2.347 3.235 2.82 3.683 4.261 4.027 9.984 6.5 16.27 6.5 13.135 0 23.823-10.792 23.823-24.055S77.663 15.446 64.528 15.446ZM110.888 65V18.066h8.567V65h-8.567Zm16.902 0V30.728h7.749v6.741l-.63-1.197c.798-2.058 2.1-3.612 3.906-4.662 1.848-1.092 3.99-1.638 6.426-1.638 2.52 0 4.746.546 6.678 1.638a11.539 11.539 0 0 1 4.599 4.6c1.092 1.931 1.638 4.178 1.638 6.74V65h-8.253V44.903c0-1.512-.294-2.814-.882-3.906-.588-1.092-1.407-1.932-2.457-2.52-1.008-.63-2.205-.945-3.591-.945-1.344 0-2.541.315-3.591.945-1.05.588-1.869 1.428-2.457 2.52-.588 1.092-.882 2.394-.882 3.906V65h-8.253Zm41.313 0V38.1h-6.048v-7.372h6.048v-1.134c0-2.604.525-4.809 1.575-6.614a10.736 10.736 0 0 1 4.536-4.221c1.932-.966 4.221-1.45 6.867-1.45.504 0 1.05.043 1.638.127.63.042 1.155.105 1.575.189v7.119a6.11 6.11 0 0 0-1.197-.127 7.642 7.642 0 0 0-.945-.063c-1.848 0-3.276.42-4.284 1.26-1.008.798-1.512 2.058-1.512 3.78v1.134h14.994V38.1h-14.994V65h-8.253Zm20.16 0V30.728h8.316V65h-8.316Zm15.184 0V30.728h7.749v6.741l-.63-1.197c.798-2.058 2.1-3.612 3.906-4.662 1.848-1.092 3.99-1.638 6.426-1.638 2.52 0 4.746.546 6.678 1.638a11.539 11.539 0 0 1 4.599 4.6c1.092 1.931 1.638 4.178 1.638 6.74V65h-8.253V44.903c0-1.512-.294-2.814-.882-3.906-.588-1.092-1.407-1.932-2.457-2.52-1.008-.63-2.205-.945-3.591-.945-1.344 0-2.541.315-3.591.945-1.05.588-1.869 1.428-2.457 2.52-.588 1.092-.882 2.394-.882 3.906V65h-8.253Zm37.345 0V30.728h8.253V65h-8.253Zm0-38.115v-8.82h8.253v8.82h-8.253ZM254.577 65l11.97-17.199-12.033-17.073h9.702l9.387 13.86h-4.347l9.387-13.86h9.639l-11.97 17.073L288.219 65h-9.639l-9.261-13.797h4.221L264.279 65h-9.702Z" fill="#fff"/><path d="M307.352 15.445v48.109" stroke="#fff" stroke-width=".916"/><path d="M327.206 35V17.933h2.245v7.606h8.545v-7.606h2.268V35h-2.268v-7.4h-8.545V35h-2.245Zm25.002.275a8.932 8.932 0 0 1-3.391-.642 8.578 8.578 0 0 1-2.772-1.855 8.686 8.686 0 0 1-1.832-2.795c-.443-1.084-.665-2.26-.665-3.528 0-1.283.222-2.459.665-3.528a8.686 8.686 0 0 1 1.832-2.795 8.345 8.345 0 0 1 2.749-1.833c1.054-.427 2.192-.641 3.414-.641s2.352.221 3.39.664a8.037 8.037 0 0 1 2.749 1.833 8.271 8.271 0 0 1 1.856 2.772c.458 1.07.687 2.245.687 3.528 0 1.268-.229 2.444-.687 3.528a8.524 8.524 0 0 1-1.856 2.795 8.323 8.323 0 0 1-2.749 1.855c-1.038.428-2.168.642-3.39.642Zm0-2.085c.947 0 1.81-.168 2.588-.504a6.167 6.167 0 0 0 2.016-1.443 6.508 6.508 0 0 0 1.329-2.153 7.198 7.198 0 0 0 .481-2.635 7.02 7.02 0 0 0-.481-2.612 6.259 6.259 0 0 0-1.329-2.13 5.751 5.751 0 0 0-2.016-1.443c-.778-.352-1.641-.527-2.588-.527-.932 0-1.787.175-2.566.527a5.978 5.978 0 0 0-2.039 1.443 6.792 6.792 0 0 0-1.329 2.13 7.04 7.04 0 0 0-.481 2.612c0 .932.161 1.81.481 2.635a7.08 7.08 0 0 0 1.329 2.153c.58.61 1.26 1.092 2.039 1.443.779.336 1.634.504 2.566.504ZM364.164 35V17.933h2.246v15.005h7.491V35h-9.737Zm12.26 0V17.933h5.59c1.726 0 3.23.351 4.513 1.054a7.354 7.354 0 0 1 2.978 2.978c.703 1.268 1.054 2.764 1.054 4.49 0 1.71-.351 3.207-1.054 4.49a7.504 7.504 0 0 1-2.978 3.001c-1.283.703-2.787 1.054-4.513 1.054h-5.59Zm2.245-2.062h3.368c1.268 0 2.36-.267 3.276-.802a5.445 5.445 0 0 0 2.153-2.245c.504-.977.756-2.123.756-3.436 0-1.329-.259-2.474-.779-3.436a5.3 5.3 0 0 0-2.153-2.222c-.916-.535-2.001-.802-3.253-.802h-3.368v12.943ZM393.405 35V17.933h2.245V35h-2.245Zm6.04 0V17.933h1.879l9.804 13.791-.847.092V17.933h2.268V35h-1.879l-9.759-13.883.779-.091V35h-2.245Zm24.794.275c-1.207 0-2.322-.214-3.345-.642a7.943 7.943 0 0 1-2.657-1.855 8.766 8.766 0 0 1-1.764-2.795c-.413-1.07-.619-2.238-.619-3.505 0-1.283.206-2.459.619-3.528.412-1.07.992-2 1.741-2.795a7.67 7.67 0 0 1 2.657-1.833c1.023-.442 2.138-.664 3.345-.664 1.176 0 2.23.206 3.161.619.947.412 1.741.947 2.383 1.603.657.657 1.122 1.36 1.397 2.108l-2.016.985c-.397-.993-1.015-1.78-1.855-2.36-.84-.58-1.864-.87-3.07-.87-1.191 0-2.253.282-3.184.847-.917.565-1.635 1.352-2.154 2.36-.519 1.008-.779 2.184-.779 3.528 0 1.329.26 2.497.779 3.505.535 1.008 1.26 1.794 2.176 2.36.932.565 1.994.847 3.185.847 1.038 0 1.978-.221 2.818-.664a5.13 5.13 0 0 0 1.993-1.833c.488-.779.733-1.68.733-2.703v-1.054l1.031.962h-6.598v-1.947h7.835v1.512c0 1.191-.206 2.268-.619 3.23a7.427 7.427 0 0 1-1.695 2.474 7.66 7.66 0 0 1-2.497 1.558 8.24 8.24 0 0 1-3.001.55Zm-89.152 29c-1.207 0-2.322-.214-3.345-.642a7.943 7.943 0 0 1-2.657-1.855 8.766 8.766 0 0 1-1.764-2.795c-.413-1.07-.619-2.237-.619-3.505 0-1.283.206-2.459.619-3.528.412-1.07.992-2 1.741-2.795a7.67 7.67 0 0 1 2.657-1.833c1.023-.443 2.138-.664 3.345-.664 1.176 0 2.23.206 3.161.619.947.412 1.741.947 2.383 1.603.657.657 1.122 1.36 1.397 2.108l-2.016.985c-.397-.993-1.015-1.78-1.855-2.36-.84-.58-1.864-.87-3.07-.87-1.191 0-2.253.282-3.184.847-.917.565-1.635 1.352-2.154 2.36-.519 1.008-.779 2.184-.779 3.528 0 1.329.26 2.497.779 3.505.535 1.008 1.26 1.795 2.176 2.36.932.565 1.993.847 3.185.847 1.038 0 1.978-.221 2.818-.664a5.13 5.13 0 0 0 1.993-1.833c.488-.779.733-1.68.733-2.703v-1.054l1.031.962h-6.598v-1.947h7.835v1.512c0 1.191-.207 2.268-.619 3.23a7.427 7.427 0 0 1-1.695 2.474 7.66 7.66 0 0 1-2.497 1.558 8.24 8.24 0 0 1-3.001.55ZM345.931 64V46.933h6.025c1.131 0 2.123.214 2.979.641a4.729 4.729 0 0 1 1.993 1.833c.488.794.733 1.726.733 2.795 0 1.206-.306 2.23-.917 3.07-.611.84-1.435 1.443-2.474 1.81L358.233 64h-2.611l-4.17-7.4 1.489.871h-4.765V64h-2.245Zm2.245-8.59h3.849c.672 0 1.26-.13 1.764-.39s.894-.634 1.168-1.123c.291-.489.436-1.054.436-1.695 0-.657-.145-1.222-.436-1.695a2.756 2.756 0 0 0-1.168-1.123c-.504-.26-1.092-.39-1.764-.39h-3.849v6.415Zm20.766 8.865a8.932 8.932 0 0 1-3.391-.642 8.6 8.6 0 0 1-2.772-1.855 8.719 8.719 0 0 1-1.832-2.795c-.443-1.084-.665-2.26-.665-3.528 0-1.283.222-2.459.665-3.528a8.719 8.719 0 0 1 1.832-2.795 8.355 8.355 0 0 1 2.749-1.832c1.054-.428 2.192-.642 3.414-.642s2.352.221 3.39.664a8.028 8.028 0 0 1 2.749 1.833 8.257 8.257 0 0 1 1.856 2.772c.458 1.07.687 2.245.687 3.528 0 1.268-.229 2.444-.687 3.528a8.508 8.508 0 0 1-1.856 2.795 8.312 8.312 0 0 1-2.749 1.855c-1.038.428-2.168.642-3.39.642Zm0-2.085c.947 0 1.81-.168 2.589-.504a6.188 6.188 0 0 0 2.016-1.443 6.522 6.522 0 0 0 1.328-2.154 7.198 7.198 0 0 0 .481-2.634 7.02 7.02 0 0 0-.481-2.612 6.272 6.272 0 0 0-1.328-2.13 5.77 5.77 0 0 0-2.016-1.443c-.779-.352-1.642-.527-2.589-.527-.932 0-1.787.175-2.566.527a5.988 5.988 0 0 0-2.039 1.443 6.792 6.792 0 0 0-1.329 2.13 7.04 7.04 0 0 0-.481 2.612c0 .932.161 1.81.481 2.635a7.08 7.08 0 0 0 1.329 2.153 6.436 6.436 0 0 0 2.039 1.443c.779.336 1.634.504 2.566.504Zm18.142 2.085c-1.237 0-2.337-.26-3.299-.779a5.738 5.738 0 0 1-2.222-2.13c-.519-.917-.779-1.955-.779-3.116V46.933h2.268v11.271c0 .779.168 1.474.504 2.085a3.781 3.781 0 0 0 1.42 1.397c.611.336 1.314.504 2.108.504s1.489-.168 2.085-.504a3.572 3.572 0 0 0 1.42-1.397c.351-.611.527-1.306.527-2.085V46.933h2.268V58.25c0 1.16-.267 2.2-.802 3.115a5.57 5.57 0 0 1-2.199 2.131c-.947.52-2.047.779-3.299.779Zm9.99-.275V46.933h6.025c1.13 0 2.122.214 2.978.641a4.729 4.729 0 0 1 1.993 1.833c.489.794.733 1.726.733 2.795s-.244 2-.733 2.795c-.474.779-1.138 1.39-1.993 1.833-.84.427-1.833.641-2.978.641h-3.78V64h-2.245Zm2.245-8.59h3.848c.688 0 1.283-.13 1.787-.39s.894-.634 1.169-1.123c.274-.489.412-1.054.412-1.695 0-.657-.138-1.222-.412-1.695a2.764 2.764 0 0 0-1.169-1.123c-.504-.26-1.099-.39-1.787-.39h-3.848v6.415Z" fill="#fff"/></svg>
